X:1
T:Title
%%score 1 { 2 | 3 }
L:1/8
Q:1/4=107
M:4/4
K:Bb
V:1 treble nm="Grand Piano, Soprano"
V:2 bass nm="Choir Pad, Bass"
V:3 bass 
V:1
 [B,D][CE] [DF]2- [DF][EG] [DF]2 | [FB]2 [EB]2 [EA]2 [EG]2 | [EF]2 [Ec]2- [Ec][Ec] [DB]2 | %3
w: By~Edmund~Simon~Lorenz * * * * *|||
 [Fc]2 [Fd]6 | [Fd][Fc] [GB]2- [GB][^FA] [GB]2 | [EG]2 [EG]2 [DF]2 F2 | %6
w: |||
 [FG]2 [FA]2- [FA][FA] [=EG]2 | [=Ec]2 [_Ec]6 | [EF][EG] [EB]2 [EA]2 [EG]2 | %9
w: |||
 [EF]2 [DF]2 [DB]2 [DF]2 | [DG]2 [EB]2 [EA]2 [DB]2 | [Fc]2 [Fd]6 | [Fd][Fd] [^Fd]2 [Fc]2 [Gc]2 | %13
w: ||||
 [GB]2 [EG]2 [Ge]2 [Fd]2 | [Ec]2 [DF]2 [Fd]2 [Ec]2- | [Ec][DB] [DB]6 | [DB][Ec] [Fd]2 [Fd]2 [DF]2 | %17
w: ||||
 [Fd]2 [Fe]6 | [EA][DB] [Ec]2 [Ec]2 [EF]2 | [Ec]2 [Fd]6 | [DB][Ec] [Fd]2 [FB]2 [^FA]2 | %21
w: ||||
 [^FB]2 G2 [Ge]2 [=Fd]2 | [Ec]2 [DF]2 [Fd]2 [Ec]2- | [Ec][DB] [DB]6- | [DB]2 z2 z4 |] %25
w: ||||
V:2
 F,F, B,2- B,B, B,2 | B,2 F,2 F,2 G,2 | A,2 A,2- A,A, B,2 | A,2 B,6 | B,B, B,2- B,C B,2 | %5
 B,2 B,2 B,2[K:treble] D2 | _D2 C2- CC[K:bass] B,2 | B,2 A,6 | A,B, C2 C2 B,2 | A,2 B,2 F,2 B,2 | %10
 B,2 C2 C2 B,2 | A,2 B,6 | B,B,[K:treble] D2 D2 D2 | DB,[K:bass] B,2 C2 =B,2 | C2 B,2 B,2 A,2- | %15
 A,F, F,6 | B,B, B,2 B,2 B,2 | B,B,A,A, A,A, A,2 | CB, A,2 A,2 A,2 | A,A, B,4 z2 | %20
 B,B, B,2[K:treble] D2 C2 | D2 B,2 C2[K:bass] =B,2 | C2 B,2 B,2 A,2- | A,F, F,6- | F,2 z2 z4 |] %25
V:3
 B,,B,, B,,2- B,,B,, B,,2 | D,2 C,2 C,2 C,2 | C,2 F,2- F,F, F,2 | F,2 B,,6 | B,,B,, E,2- E,E, E,2 | %5
 E,2 B,,2 B,,2 B,,2 | B,,2 C,2- C,C, C,2 | C,2 F,6 | F,F, F,2 F,2 F,2 | F,2 B,,2 B,,2 B,,2 | %10
 B,,2 F,2 F,2 F,2 | F,2 z2 z4 | z2 A,2 A,2 G,2 | G,2 E,2 C,2 D,2 | E,2 F,2 F,2 F,2- | F, z B,,6 | %16
 z8 | B,,B,,C,C, C,C, C,2 | F,F, F,2 F,2 F,2 | F,F,B,,B,, D,F, B,2 | B,,B,, B,,2 B,,2 D,2 | %21
 D,2 E,2 C,2 D,2 | E,2 F,2 F,2 F,2- | F, z B,,6- | B,,2 z2 z4 |] %25

